X: 1508
T: Gundy's 1st Barndance
B: australian traditional tunes wiki
M:4/4
L:1/8
R: Schottische
Q: 1/4=100
K:D
V:1 
c>B|"D"A>B (3cBA f>A f>A|A>B (3cBA "A7"g>B g>B|A>B (3cBA "D"a>A f>A|"A7"e>A (3cBc"D"f4|
"D"A>B (3cBA f>A f>A|A>B (3cBA "A7"g>B g>B|A>B (3cBA "D"(3aAd "Bm"(3fcd|"E7"(3eGB "A7"(3cBc "D"d2-"A7"d2|
"D"f>e d>B (3AdA F>G|"A7"A>G E>F G3F|A,>C E>F G>A c>B|(3ABA F>G "D"A3d|
"D"f>e d>B (3AdA F>G|"A7"A>G E>F G3F|A,>C E>F G>A c2|(3ABA f>e"D"d2||
% abcbook-tune_id 6342d53aa1132e2eaa9c8577


% abcbook-boost 0
% abcbook-tablature 
% abcbook-transpose 
% abcbook-lastupdated 1665324368460
% abcbook-soundfonts 
% abcbook-repeats 1
% NFF Book 2015

